icons-draft/fo4/default_nuka_cola.svg

<svg xmlns="http://www.w3.org/2000/svg" xmlns:xlink="http://www.w3.org/1999/xlink" width="128pt" height="129pt" viewBox="0 0 128 129" version="1.1">
<g id="surface1">
<path d="M 74.5625 79.414062 C 79.121094 74.71875 81.742188 69.539062 82.433594 63.878906 C 83.398438 58.078125 82.15625 53.453125 78.707031 50.003906 C 75.253906 46.550781 70.628906 45.308594 64.828125 46.273438 C 59.167969 47.101562 53.988281 49.726562 49.292969 54.144531 C 44.738281 58.699219 42.113281 63.878906 41.425781 69.679688 C 40.59375 75.339844 41.90625 79.894531 45.359375 83.347656 C 48.8125 86.800781 53.367188 88.109375 59.027344 87.28125 C 64.828125 86.59375 70.007812 83.96875 74.5625 79.414062 M 77.046875 63.878906 L 76.21875 67.605469 L 74.976562 70.300781 L 70.835938 75.683594 C 67.246094 79.273438 63.308594 81.34375 59.027344 81.898438 C 55.023438 82.449219 51.847656 81.550781 49.5 79.203125 C 47.152344 76.859375 46.257812 73.683594 46.808594 69.679688 C 47.363281 65.398438 49.433594 61.460938 53.023438 57.871094 C 56.476562 54.421875 60.410156 52.347656 64.828125 51.660156 C 68.832031 51.105469 72.007812 52.003906 74.355469 54.351562 C 76.839844 56.699219 77.738281 59.875 77.046875 63.878906 M 124.273438 2.78125 C 126.480469 0.984375 127.722656 0.292969 128 0.710938 L 125.722656 4.4375 L 119.714844 12.515625 L 118.472656 14.171875 C 119.992188 15.550781 120.890625 17.554688 121.164062 20.175781 L 120.957031 24.527344 L 118.472656 27.425781 C 117.230469 28.117188 115.367188 29.359375 112.878906 31.15625 L 109.359375 34.054688 L 105.632812 37.574219 L 101.074219 43.167969 L 92.582031 59.738281 L 80.15625 82.3125 C 77.117188 87.007812 73.25 91.769531 68.554688 96.601562 L 55.921875 107.164062 L 54.265625 115.65625 L 41.007812 128.914062 L 32.105469 120.007812 L 28.996094 118.972656 L 21.125 114 L 14.914062 120.214844 L 8.492188 113.792969 L 14.707031 107.578125 L 9.734375 99.710938 L 8.699219 96.601562 L 0 87.695312 L 13.046875 74.441406 L 21.539062 72.992188 L 32.105469 60.152344 C 36.9375 55.457031 41.699219 51.589844 46.394531 48.550781 C 50.539062 45.789062 58.0625 41.648438 68.972656 36.125 L 85.539062 27.632812 L 94.859375 19.347656 L 97.554688 15.828125 L 101.28125 10.234375 L 104.179688 7.75 L 108.53125 7.542969 C 111.152344 7.820312 113.226562 8.71875 114.746094 10.234375 L 116.402344 8.992188 L 124.273438 2.78125 "/>
</g>
</svg>

<?xml version="1.0" encoding="utf-8"?>
<!-- Generator: Adobe Illustrator 27.9.0, SVG Export Plug-In . SVG Version: 6.00 Build 0)  -->
<svg version="1.1" id="Layer_1" xmlns="http://www.w3.org/2000/svg" xmlns:xlink="http://www.w3.org/1999/xlink" x="0px" y="0px"
	 viewBox="0 0 128 129" style="enable-background:new 0 0 128 129;" xml:space="preserve">
<g id="surface1">
	<path d="M74.6,79.4c4.6-4.7,7.2-9.9,7.9-15.5c1-5.8-0.3-10.4-3.7-13.9c-3.5-3.5-8.1-4.7-13.9-3.7c-5.7,0.8-10.8,3.5-15.5,7.9
		c-4.6,4.6-7.2,9.7-7.9,15.5c-0.8,5.7,0.5,10.2,3.9,13.7s8,4.8,13.7,3.9C64.8,86.6,70,84,74.6,79.4 M77,63.9l-0.8,3.7L75,70.3
		l-4.1,5.4c-3.6,3.6-7.5,5.7-11.8,6.2c-4,0.6-7.2-0.3-9.5-2.7c-2.3-2.3-3.2-5.5-2.7-9.5c0.6-4.3,2.6-8.2,6.2-11.8
		c3.5-3.4,7.4-5.5,11.8-6.2c4-0.6,7.2,0.3,9.5,2.7C76.8,56.7,77.7,59.9,77,63.9 M118.5,14.2c1.5,1.4,2.4,3.4,2.7,6l-0.2,4.4
		l-2.5,2.9c-1.2,0.7-3.1,1.9-5.6,3.7l-3.5,2.9l-3.7,3.5l-4.6,5.6l-8.5,16.6L80.2,82.3c-3,4.7-6.9,9.5-11.6,14.3l-12.6,10.6l-1.7,8.5
		L41,128.9l-8.9-8.9l-3.1-1l-7.9-5l-6.2,6.2l-6.4-6.4l6.2-6.2l-5-7.9l-1-3.1L0,87.7l13-13.3l8.5-1.4l10.6-12.8
		c4.8-4.7,9.6-8.6,14.3-11.6c4.1-2.8,11.7-6.9,22.6-12.4l16.6-8.5l9.3-8.3l2.7-3.5l3.7-5.6l2.9-2.5l4.4-0.2c2.6,0.3,4.7,1.2,6.2,2.7
		"/>
</g>
</svg>
